public/flags/NO.svg

<svg fill="none" height="53" viewBox="0 0 61 53" width="61" xmlns="http://www.w3.org/2000/svg" xmlns:xlink="http://www.w3.org/1999/xlink"><mask id="a" height="43" maskUnits="userSpaceOnUse" width="59" x="1" y="3"><rect fill="#fff" height="41.4393" rx="3.7125" stroke="#fff" stroke-width="1.06071" width="57.9393" x="1.53036" y="3.53036"/></mask><rect fill="#fff" height="41.4393" rx="3.7125" stroke="#f5f5f5" stroke-width="1.06071" width="57.9393" x="1.53036" y="3.53036"/><g clip-rule="evenodd" fill-rule="evenodd" mask="url(#a)"><path d="m17.8571 3h-16.8571v17h16.8571zm8.4286 0v17h33.7143v-17zm33.7143 25.5h-33.7143v17h33.7143zm-42.1429 17v-17h-16.8571v17z" fill="#f14247"/><path d="m1 25.6667h19.6667v19.8333h2.8095v-19.8333h36.5238v-2.8334h-36.5238v-19.8333h-2.8095v19.8333h-19.6667z" fill="#0a3a85"/></g></svg>

<svg width="61" height="53" viewBox="0 0 61 53" fill="none" xmlns="http://www.w3.org/2000/svg">
<rect x="1.53036" y="3.53036" width="57.9393" height="41.4393" rx="3.7125" fill="white" stroke="#F5F5F5" stroke-width="1.06071"/>
<mask id="mask0" mask-type="alpha" maskUnits="userSpaceOnUse" x="1" y="3" width="59" height="43">
<rect x="1.53036" y="3.53036" width="57.9393" height="41.4393" rx="3.7125" fill="white" stroke="white" stroke-width="1.06071"/>
</mask>
<g mask="url(#mask0)">
<path fill-rule="evenodd" clip-rule="evenodd" d="M17.8571 3H1V20H17.8571V3ZM26.2857 3V20H60V3H26.2857ZM60 28.5H26.2857V45.5H60V28.5ZM17.8571 45.5V28.5H1V45.5H17.8571Z" fill="#F14247"/>
<path fill-rule="evenodd" clip-rule="evenodd" d="M1 25.6667H20.6667V45.5H23.4762V25.6667H60V22.8333H23.4762V3H20.6667V22.8333H1V25.6667Z" fill="#0A3A85"/>
</g>
</svg>
